X:12013
T:Lads of Laois
R:Reel
C:Trad.
O:Ireland
Z:Paul Hardy's Session Tunebook 2015 (see www.paulhardy.net). Creative Commons cc by-nc-sa licenced.
M:2/2
L:1/8
Q:1/2=70
K:Em
"Em"EB,B,2 EGFE|"D"DA,A,2 DEFD|"Em"GEED EFGA|"D"B2e^c dBAF|
"Em"EB,B,2 EGFE|"D"DA,A,2 DEFD|"Em"E2BE dEBE|"D"DEFA "Em"BE E2:|
|:"Em"eBB2 egfe|"D"defa gfed|"Em"Bded efge|"D"fgaf gfed|
"Em"eB B2 "G"GB"D"FB|"Em"EB B2 (3Bcd ef|"C"g3e "D"f3d|"Bm"efed BAFD:|

